assets/img/cds-data-replication.svg

<svg fill="none" height="71" viewBox="0 0 69 71" width="69" xmlns="http://www.w3.org/2000/svg" xmlns:xlink="http://www.w3.org/1999/xlink"><mask id="a" fill="#fff"><path d="m49.899 59.25h-45.00007c-.69029 0-1.25-.5597-1.25-1.25v-22.5001c0-.9944.39508-1.9487 1.09821-2.6517s1.65743-1.0982 2.65172-1.0982h31.25004c.6903 0 1.25.5597 1.25 1.25s-.5597 1.25-1.25 1.25h-31.25004c-.69029 0-1.25.5597-1.25 1.25v21.25h42.50004v-12.5c0-.6903.5598-1.25 1.25-1.25.6903 0 1.2501.5597 1.2501 1.25v13.7501c0 .3314-.1317.6495-.3661.8839s-.5525.3661-.884.3661z" fill="#fff"/></mask><mask id="b" fill="#fff"><path d="m51.0491 70.4999h-47.30011c-1.26953-.0005-2.45258-.6428-3.144007-1.7075-.6914013-1.0653-.79743-2.4075-.280686-3.5676l3.437433-7.7378v.0006c.20089-.4481.6462-.7366 1.13728-.7377h45.00009c.4911.0011.9364.2896 1.1373.7377l3.4374 7.7377v-.0005c.5168 1.1601.4107 2.5023-.2807 3.5676-.6914 1.0647-1.8744 1.707-3.144 1.7075zm-45.33725-11.25-3.11272 6.9877c-.16964.3873-.1317.8337.10045 1.1875.22935.3577.625.5743 1.04967.5748h47.30005c.4247-.0005.8204-.2171 1.0497-.5748.2322-.3538.2701-.8002.1005-1.1875l-3.1128-6.9877z" fill="#fff"/></mask><mask id="c" fill="#fff"><path d="m34.899 70.5h-13.75c-.433-.0011-.8348-.2271-1.0614-.596-.2265-.3694-.2461-.8298-.0513-1.2165l2.5-5c.212-.4202.6423-.6858 1.1127-.6875h8.75c.4705.0017.9007.2673 1.1128.6875l2.5 5c.1947.3867.1752.8471-.0514 1.2165-.2265.3689-.6283.5949-1.0614.596zm-11.7249-2.5h9.6998l-1.25-2.5h-7.1997z" fill="#fff"/></mask><mask id="d" fill="#fff"><path d="m64.8989 40.4999h-18.75c-.9945 0-1.9488-.395-2.6518-1.0982-.703-.7031-1.0982-1.6574-1.0982-2.6517v-32.50006c0-.99442.3951-1.94872 1.0982-2.65172.7032-.703005 1.6575-1.09822 2.6518-1.09822h18.75c.9944 0 1.9487.395087 2.6517 1.09822.703.70313 1.0982 1.65743 1.0982 2.65172v32.50006c0 .9944-.395 1.9487-1.0982 2.6517-.7031.703-1.6574 1.0982-2.6517 1.0982zm-18.75-37.50004c-.6903 0-1.25.55972-1.25 1.25v32.50004c0 .3315.1317.6496.366.884.2344.2343.5525.366.884.366h18.75c.3315 0 .6496-.1317.8839-.366.2344-.2344.3661-.5525.3661-.884v-32.50004c0-.33147-.1317-.64955-.3661-.88393-.2343-.23437-.5524-.36607-.8839-.36607z" fill="#fff"/></mask><mask id="e" fill="#fff"><path d="m57.3989 6.74988h-3.75c-.6903 0-1.25-.55971-1.25-1.25s.5597-1.25 1.25-1.25h3.75c.6903 0 1.25.55971 1.25 1.25s-.5597 1.25-1.25 1.25z" fill="#fff"/></mask><mask id="f" fill="#fff"><path d="m55.5234 36.7499h-.25c-.0782-.0139-.1541-.039-.2249-.0748l-.2249-.1127-.1875-.1501c-.2366-.2344-.37-.5541-.37-.8873 0-.3331.1334-.6529.37-.8878.2907-.3047.7159-.4431 1.1306-.3666.4146.0764.7628.3566.9263.7455.1635.3884.1194.8332-.1161 1.183-.236.3494-.6322.5564-1.0535.5508z" fill="#fff"/></mask><mask id="g" fill="#fff"><path d="m31.149 17.7871c-.663 0-1.2992-.2634-1.7679-.7321-.4688-.4688-.7322-1.1049-.7322-1.7679v-1.0374h-10c-.6903 0-1.25-.5597-1.25-1.25v-4.99998c0-.69029.5597-1.25 1.25-1.25h10v-1.03739c.0034-.63952.2512-1.25279.6926-1.71486.4419-.46206 1.0435-.73773 1.6818-.76953.6384-.03237 1.2651.18135 1.7506.59654l5.5747 4.77515c.5385.47489.8466 1.15738.8466 1.87497 0 .7177-.308 1.4007-.8466 1.875l-5.5747 4.8253c-.4509.3918-1.0273.6089-1.625.6122zm-11.2501-6.0374h10.0001c.3314 0 .6495.1317.8839.3661.2344.2343.3661.5524.3661.8839v2.2874l5.5747-4.7874-5.5747-4.78746v2.28744c0 .33147-.1317.64955-.3661.88393-.2344.23437-.5525.36607-.8839.36607h-10.0001z" fill="#fff"/></mask><mask id="h" fill="#fff"><path d="m16.1491 28.5742c-.7311 0-1.4253-.3192-1.9002-.875l-4.77513-5.5747c-.41517-.4855-.6289-1.1122-.59654-1.7506.03181-.6384.30747-1.24.76953-1.6819.46204-.4414 1.07534-.6891 1.71484-.6925h1.0374v-5c-.0017-.332.1284-.6518.3627-.8873l5-5c.3594-.35491.8968-.4587 1.3622-.26282.4671.19197.7723.64564.7751 1.15011v10.00001h1.0374c.6395.0034 1.2528.2511 1.7149.6925.462.442.7377 1.0436.7695 1.6819.0324.6384-.1813 1.2651-.5965 1.7506l-4.7752 5.5876c-.4777.5507-1.1713.8655-1.9001.8621zm-4.7875-8.0747 4.7875 5.5747 4.7874-5.5747h-2.2874c-.6903 0-1.25-.5598-1.25-1.25v-8.2378l-2.5 2.5v5.7378c0 .3314-.1317.6495-.3661.8839s-.5525.3661-.8839.3661z" fill="#fff"/></mask><g fill="#e11d48" stroke="#eaeaea" stroke-width=".5"><path d="m49.899 59.25h-45.00007c-.69029 0-1.25-.5597-1.25-1.25v-22.5001c0-.9944.39508-1.9487 1.09821-2.6517s1.65743-1.0982 2.65172-1.0982h31.25004c.6903 0 1.25.5597 1.25 1.25s-.5597 1.25-1.25 1.25h-31.25004c-.69029 0-1.25.5597-1.25 1.25v21.25h42.50004v-12.5c0-.6903.5598-1.25 1.25-1.25.6903 0 1.2501.5597 1.2501 1.25v13.7501c0 .3314-.1317.6495-.3661.8839s-.5525.3661-.884.3661z" mask="url(#a)"/><path d="m51.0491 70.4999h-47.30011c-1.26953-.0005-2.45258-.6428-3.144007-1.7075-.6914013-1.0653-.79743-2.4075-.280686-3.5676l3.437433-7.7378v.0006c.20089-.4481.6462-.7366 1.13728-.7377h45.00009c.4911.0011.9364.2896 1.1373.7377l3.4374 7.7377v-.0005c.5168 1.1601.4107 2.5023-.2807 3.5676-.6914 1.0647-1.8744 1.707-3.144 1.7075zm-45.33725-11.25-3.11272 6.9877c-.16964.3873-.1317.8337.10045 1.1875.22935.3577.625.5743 1.04967.5748h47.30005c.4247-.0005.8204-.2171 1.0497-.5748.2322-.3538.2701-.8002.1005-1.1875l-3.1128-6.9877z" mask="url(#b)"/><path d="m34.899 70.5h-13.75c-.433-.0011-.8348-.2271-1.0614-.596-.2265-.3694-.2461-.8298-.0513-1.2165l2.5-5c.212-.4202.6423-.6858 1.1127-.6875h8.75c.4705.0017.9007.2673 1.1128.6875l2.5 5c.1947.3867.1752.8471-.0514 1.2165-.2265.3689-.6283.5949-1.0614.596zm-11.7249-2.5h9.6998l-1.25-2.5h-7.1997z" mask="url(#c)"/><path d="m64.8989 40.4999h-18.75c-.9945 0-1.9488-.395-2.6518-1.0982-.703-.7031-1.0982-1.6574-1.0982-2.6517v-32.50006c0-.99442.3951-1.94872 1.0982-2.65172.7032-.703005 1.6575-1.09822 2.6518-1.09822h18.75c.9944 0 1.9487.395087 2.6517 1.09822.703.70313 1.0982 1.65743 1.0982 2.65172v32.50006c0 .9944-.395 1.9487-1.0982 2.6517-.7031.703-1.6574 1.0982-2.6517 1.0982zm-18.75-37.50004c-.6903 0-1.25.55972-1.25 1.25v32.50004c0 .3315.1317.6496.366.884.2344.2343.5525.366.884.366h18.75c.3315 0 .6496-.1317.8839-.366.2344-.2344.3661-.5525.3661-.884v-32.50004c0-.33147-.1317-.64955-.3661-.88393-.2343-.23437-.5524-.36607-.8839-.36607z" mask="url(#d)"/><path d="m57.3989 6.74988h-3.75c-.6903 0-1.25-.55971-1.25-1.25s.5597-1.25 1.25-1.25h3.75c.6903 0 1.25.55971 1.25 1.25s-.5597 1.25-1.25 1.25z" mask="url(#e)"/><path d="m55.5234 36.7499h-.25c-.0782-.0139-.1541-.039-.2249-.0748l-.2249-.1127-.1875-.1501c-.2366-.2344-.37-.5541-.37-.8873 0-.3331.1334-.6529.37-.8878.2907-.3047.7159-.4431 1.1306-.3666.4146.0764.7628.3566.9263.7455.1635.3884.1194.8332-.1161 1.183-.236.3494-.6322.5564-1.0535.5508z" mask="url(#f)"/><path d="m31.149 17.7871c-.663 0-1.2992-.2634-1.7679-.7321-.4688-.4688-.7322-1.1049-.7322-1.7679v-1.0374h-10c-.6903 0-1.25-.5597-1.25-1.25v-4.99998c0-.69029.5597-1.25 1.25-1.25h10v-1.03739c.0034-.63952.2512-1.25279.6926-1.71486.4419-.46206 1.0435-.73773 1.6818-.76953.6384-.03237 1.2651.18135 1.7506.59654l5.5747 4.77515c.5385.47489.8466 1.15738.8466 1.87497 0 .7177-.308 1.4007-.8466 1.875l-5.5747 4.8253c-.4509.3918-1.0273.6089-1.625.6122zm-11.2501-6.0374h10.0001c.3314 0 .6495.1317.8839.3661.2344.2343.3661.5524.3661.8839v2.2874l5.5747-4.7874-5.5747-4.78746v2.28744c0 .33147-.1317.64955-.3661.88393-.2344.23437-.5525.36607-.8839.36607h-10.0001z" mask="url(#g)"/><path d="m16.1491 28.5742c-.7311 0-1.4253-.3192-1.9002-.875l-4.77513-5.5747c-.41517-.4855-.6289-1.1122-.59654-1.7506.03181-.6384.30747-1.24.76953-1.6819.46204-.4414 1.07534-.6891 1.71484-.6925h1.0374v-5c-.0017-.332.1284-.6518.3627-.8873l5-5c.3594-.35491.8968-.4587 1.3622-.26282.4671.19197.7723.64564.7751 1.15011v10.00001h1.0374c.6395.0034 1.2528.2511 1.7149.6925.462.442.7377 1.0436.7695 1.6819.0324.6384-.1813 1.2651-.5965 1.7506l-4.7752 5.5876c-.4777.5507-1.1713.8655-1.9001.8621zm-4.7875-8.0747 4.7875 5.5747 4.7874-5.5747h-2.2874c-.6903 0-1.25-.5598-1.25-1.25v-8.2378l-2.5 2.5v5.7378c0 .3314-.1317.6495-.3661.8839s-.5525.3661-.8839.3661z" mask="url(#h)"/></g></svg>

<svg width="69" height="71" viewBox="0 0 69 71" fill="none" xmlns="http://www.w3.org/2000/svg">
<mask id="path-1-inside-1_3218_852" fill="white">
<path d="M49.899 59.25H4.89893C4.20864 59.25 3.64893 58.6903 3.64893 58V35.4999C3.64893 34.5055 4.04401 33.5512 4.74714 32.8482C5.45027 32.1452 6.40457 31.75 7.39886 31.75H38.6489C39.3392 31.75 39.8989 32.3097 39.8989 33C39.8989 33.6903 39.3392 34.25 38.6489 34.25H7.39886C6.70857 34.25 6.14886 34.8097 6.14886 35.5V56.75H48.6489V44.25C48.6489 43.5597 49.2087 43 49.8989 43C50.5892 43 51.149 43.5597 51.149 44.25V58.0001C51.149 58.3315 51.0173 58.6496 50.7829 58.884C50.5485 59.1184 50.2304 59.2501 49.8989 59.2501L49.899 59.25Z"/>
</mask>
<path d="M49.899 59.25H4.89893C4.20864 59.25 3.64893 58.6903 3.64893 58V35.4999C3.64893 34.5055 4.04401 33.5512 4.74714 32.8482C5.45027 32.1452 6.40457 31.75 7.39886 31.75H38.6489C39.3392 31.75 39.8989 32.3097 39.8989 33C39.8989 33.6903 39.3392 34.25 38.6489 34.25H7.39886C6.70857 34.25 6.14886 34.8097 6.14886 35.5V56.75H48.6489V44.25C48.6489 43.5597 49.2087 43 49.8989 43C50.5892 43 51.149 43.5597 51.149 44.25V58.0001C51.149 58.3315 51.0173 58.6496 50.7829 58.884C50.5485 59.1184 50.2304 59.2501 49.8989 59.2501L49.899 59.25Z" fill="#e11d48" stroke="#EAEAEA" stroke-width="0.5" mask="url(#path-1-inside-1_3218_852)"/>
<mask id="path-2-inside-2_3218_852" fill="white">
<path d="M51.0491 70.4999H3.74899C2.47946 70.4994 1.29641 69.8571 0.604983 68.7924C-0.0864183 67.7271 -0.192447 66.3849 0.324297 65.2248L3.76173 57.487V57.4876C3.96262 57.0395 4.40793 56.751 4.89901 56.7499H49.8991C50.3902 56.751 50.8355 57.0395 51.0364 57.4876L54.4738 65.2253V65.2248C54.9906 66.3849 54.8845 67.7271 54.1931 68.7924C53.5017 69.8571 52.3187 70.4994 51.0491 70.4999H51.0491ZM5.71185 59.2499L2.59913 66.2376C2.42949 66.6249 2.46743 67.0713 2.69958 67.4251C2.92893 67.7828 3.32458 67.9994 3.74925 67.9999H51.0493C51.474 67.9994 51.8697 67.7828 52.099 67.4251C52.3312 67.0713 52.3691 66.6249 52.1995 66.2376L49.0867 59.2499H5.71185Z"/>
</mask>
<path d="M51.0491 70.4999H3.74899C2.47946 70.4994 1.29641 69.8571 0.604983 68.7924C-0.0864183 67.7271 -0.192447 66.3849 0.324297 65.2248L3.76173 57.487V57.4876C3.96262 57.0395 4.40793 56.751 4.89901 56.7499H49.8991C50.3902 56.751 50.8355 57.0395 51.0364 57.4876L54.4738 65.2253V65.2248C54.9906 66.3849 54.8845 67.7271 54.1931 68.7924C53.5017 69.8571 52.3187 70.4994 51.0491 70.4999H51.0491ZM5.71185 59.2499L2.59913 66.2376C2.42949 66.6249 2.46743 67.0713 2.69958 67.4251C2.92893 67.7828 3.32458 67.9994 3.74925 67.9999H51.0493C51.474 67.9994 51.8697 67.7828 52.099 67.4251C52.3312 67.0713 52.3691 66.6249 52.1995 66.2376L49.0867 59.2499H5.71185Z" fill="#e11d48" stroke="#EAEAEA" stroke-width="0.5" mask="url(#path-2-inside-2_3218_852)"/>
<mask id="path-3-inside-3_3218_852" fill="white">
<path d="M34.899 70.5H21.149C20.716 70.4989 20.3142 70.2729 20.0876 69.904C19.8611 69.5346 19.8415 69.0742 20.0363 68.6875L22.5363 63.6875C22.7483 63.2673 23.1786 63.0017 23.649 63H32.399C32.8695 63.0017 33.2997 63.2673 33.5118 63.6875L36.0118 68.6875C36.2065 69.0742 36.187 69.5346 35.9604 69.904C35.7339 70.2729 35.3321 70.4989 34.899 70.5H34.899ZM23.1741 68H32.8739L31.6239 65.5H24.4242L23.1741 68Z"/>
</mask>
<path d="M34.899 70.5H21.149C20.716 70.4989 20.3142 70.2729 20.0876 69.904C19.8611 69.5346 19.8415 69.0742 20.0363 68.6875L22.5363 63.6875C22.7483 63.2673 23.1786 63.0017 23.649 63H32.399C32.8695 63.0017 33.2997 63.2673 33.5118 63.6875L36.0118 68.6875C36.2065 69.0742 36.187 69.5346 35.9604 69.904C35.7339 70.2729 35.3321 70.4989 34.899 70.5H34.899ZM23.1741 68H32.8739L31.6239 65.5H24.4242L23.1741 68Z" fill="#e11d48" stroke="#EAEAEA" stroke-width="0.5" mask="url(#path-3-inside-3_3218_852)"/>
<mask id="path-4-inside-4_3218_852" fill="white">
<path d="M64.8989 40.4999H46.1489C45.1544 40.4999 44.2001 40.1049 43.4971 39.4017C42.7941 38.6986 42.3989 37.7443 42.3989 36.75V4.24994C42.3989 3.25552 42.794 2.30122 43.4971 1.59822C44.2003 0.895215 45.1546 0.5 46.1489 0.5H64.8989C65.8933 0.5 66.8476 0.895087 67.5506 1.59822C68.2536 2.30135 68.6488 3.25565 68.6488 4.24994V36.75C68.6488 37.7444 68.2538 38.6987 67.5506 39.4017C66.8475 40.1047 65.8932 40.4999 64.8989 40.4999ZM46.1489 2.99986C45.4586 2.99986 44.8989 3.55958 44.8989 4.24986V36.7499C44.8989 37.0814 45.0306 37.3995 45.2649 37.6339C45.4993 37.8682 45.8174 37.9999 46.1489 37.9999H64.8989C65.2304 37.9999 65.5485 37.8682 65.7828 37.6339C66.0172 37.3995 66.1489 37.0814 66.1489 36.7499V4.24986C66.1489 3.91839 66.0172 3.60031 65.7828 3.36593C65.5485 3.13156 65.2304 2.99986 64.8989 2.99986H46.1489Z"/>
</mask>
<path d="M64.8989 40.4999H46.1489C45.1544 40.4999 44.2001 40.1049 43.4971 39.4017C42.7941 38.6986 42.3989 37.7443 42.3989 36.75V4.24994C42.3989 3.25552 42.794 2.30122 43.4971 1.59822C44.2003 0.895215 45.1546 0.5 46.1489 0.5H64.8989C65.8933 0.5 66.8476 0.895087 67.5506 1.59822C68.2536 2.30135 68.6488 3.25565 68.6488 4.24994V36.75C68.6488 37.7444 68.2538 38.6987 67.5506 39.4017C66.8475 40.1047 65.8932 40.4999 64.8989 40.4999ZM46.1489 2.99986C45.4586 2.99986 44.8989 3.55958 44.8989 4.24986V36.7499C44.8989 37.0814 45.0306 37.3995 45.2649 37.6339C45.4993 37.8682 45.8174 37.9999 46.1489 37.9999H64.8989C65.2304 37.9999 65.5485 37.8682 65.7828 37.6339C66.0172 37.3995 66.1489 37.0814 66.1489 36.7499V4.24986C66.1489 3.91839 66.0172 3.60031 65.7828 3.36593C65.5485 3.13156 65.2304 2.99986 64.8989 2.99986H46.1489Z" fill="#e11d48" stroke="#EAEAEA" stroke-width="0.5" mask="url(#path-4-inside-4_3218_852)"/>
<mask id="path-5-inside-5_3218_852" fill="white">
<path d="M57.3989 6.74988H53.6489C52.9586 6.74988 52.3989 6.19017 52.3989 5.49988C52.3989 4.80959 52.9586 4.24988 53.6489 4.24988H57.3989C58.0892 4.24988 58.6489 4.80959 58.6489 5.49988C58.6489 6.19017 58.0892 6.74988 57.3989 6.74988Z"/>
</mask>
<path d="M57.3989 6.74988H53.6489C52.9586 6.74988 52.3989 6.19017 52.3989 5.49988C52.3989 4.80959 52.9586 4.24988 53.6489 4.24988H57.3989C58.0892 4.24988 58.6489 4.80959 58.6489 5.49988C58.6489 6.19017 58.0892 6.74988 57.3989 6.74988Z" fill="#e11d48" stroke="#EAEAEA" stroke-width="0.5" mask="url(#path-5-inside-5_3218_852)"/>
<mask id="path-6-inside-6_3218_852" fill="white">
<path d="M55.5234 36.7499H55.2734C55.1952 36.736 55.1193 36.7109 55.0485 36.6751L54.8236 36.5624L54.6361 36.4123C54.3995 36.1779 54.2661 35.8582 54.2661 35.525C54.2661 35.1919 54.3995 34.8721 54.6361 34.6372C54.9268 34.3325 55.352 34.1941 55.7667 34.2706C56.1813 34.347 56.5295 34.6272 56.693 35.0161C56.8565 35.4045 56.8124 35.8493 56.5769 36.1991C56.3409 36.5485 55.9447 36.7555 55.5234 36.7499L55.5234 36.7499Z"/>
</mask>
<path d="M55.5234 36.7499H55.2734C55.1952 36.736 55.1193 36.7109 55.0485 36.6751L54.8236 36.5624L54.6361 36.4123C54.3995 36.1779 54.2661 35.8582 54.2661 35.525C54.2661 35.1919 54.3995 34.8721 54.6361 34.6372C54.9268 34.3325 55.352 34.1941 55.7667 34.2706C56.1813 34.347 56.5295 34.6272 56.693 35.0161C56.8565 35.4045 56.8124 35.8493 56.5769 36.1991C56.3409 36.5485 55.9447 36.7555 55.5234 36.7499L55.5234 36.7499Z" fill="#e11d48" stroke="#EAEAEA" stroke-width="0.5" mask="url(#path-6-inside-6_3218_852)"/>
<mask id="path-7-inside-7_3218_852" fill="white">
<path d="M31.149 17.7871C30.486 17.7871 29.8498 17.5237 29.3811 17.055C28.9123 16.5862 28.6489 15.9501 28.6489 15.2871V14.2497H18.6489C17.9586 14.2497 17.3989 13.69 17.3989 12.9997V7.99972C17.3989 7.30943 17.9586 6.74972 18.6489 6.74972H28.6489V5.71233C28.6523 5.07281 28.9001 4.45954 29.3415 3.99747C29.7834 3.53541 30.385 3.25974 31.0233 3.22794C31.6617 3.19557 32.2884 3.40929 32.7739 3.82448L38.3486 8.59963C38.8871 9.07452 39.1952 9.75701 39.1952 10.4746C39.1952 11.1923 38.8872 11.8753 38.3486 12.3496L32.7739 17.1749C32.323 17.5667 31.7466 17.7838 31.1489 17.7871L31.149 17.7871ZM19.8989 11.7497H29.899C30.2304 11.7497 30.5485 11.8814 30.7829 12.1158C31.0173 12.3501 31.149 12.6682 31.149 12.9997V15.2871L36.7237 10.4997L31.149 5.71224V7.99968C31.149 8.33115 31.0173 8.64923 30.7829 8.88361C30.5485 9.11798 30.2304 9.24968 29.899 9.24968H19.8989V11.7497Z"/>
</mask>
<path d="M31.149 17.7871C30.486 17.7871 29.8498 17.5237 29.3811 17.055C28.9123 16.5862 28.6489 15.9501 28.6489 15.2871V14.2497H18.6489C17.9586 14.2497 17.3989 13.69 17.3989 12.9997V7.99972C17.3989 7.30943 17.9586 6.74972 18.6489 6.74972H28.6489V5.71233C28.6523 5.07281 28.9001 4.45954 29.3415 3.99747C29.7834 3.53541 30.385 3.25974 31.0233 3.22794C31.6617 3.19557 32.2884 3.40929 32.7739 3.82448L38.3486 8.59963C38.8871 9.07452 39.1952 9.75701 39.1952 10.4746C39.1952 11.1923 38.8872 11.8753 38.3486 12.3496L32.7739 17.1749C32.323 17.5667 31.7466 17.7838 31.1489 17.7871L31.149 17.7871ZM19.8989 11.7497H29.899C30.2304 11.7497 30.5485 11.8814 30.7829 12.1158C31.0173 12.3501 31.149 12.6682 31.149 12.9997V15.2871L36.7237 10.4997L31.149 5.71224V7.99968C31.149 8.33115 31.0173 8.64923 30.7829 8.88361C30.5485 9.11798 30.2304 9.24968 29.899 9.24968H19.8989V11.7497Z" fill="#e11d48" stroke="#EAEAEA" stroke-width="0.5" mask="url(#path-7-inside-7_3218_852)"/>
<mask id="path-8-inside-8_3218_852" fill="white">
<path d="M16.1491 28.5742C15.418 28.5742 14.7238 28.255 14.2489 27.6992L9.47377 22.1245C9.0586 21.639 8.84487 21.0123 8.87723 20.3739C8.90904 19.7355 9.1847 19.1339 9.64676 18.692C10.1088 18.2506 10.7221 18.0029 11.3616 17.9995H12.399V12.9995C12.3973 12.6675 12.5274 12.3477 12.7617 12.1122L17.7617 7.1122C18.1211 6.75729 18.6585 6.6535 19.1239 6.84938C19.591 7.04135 19.8962 7.49502 19.899 7.99949V17.9995H20.9364C21.5759 18.0029 22.1892 18.2506 22.6513 18.692C23.1133 19.134 23.389 19.7356 23.4208 20.3739C23.4532 21.0123 23.2395 21.639 22.8243 22.1245L18.0491 27.7121C17.5714 28.2628 16.8778 28.5776 16.149 28.5742L16.1491 28.5742ZM11.3616 20.4995L16.1491 26.0742L20.9365 20.4995H18.6491C17.9588 20.4995 17.3991 19.9397 17.3991 19.2495V11.0117L14.8991 13.5117V19.2495C14.8991 19.5809 14.7674 19.899 14.533 20.1334C14.2986 20.3678 13.9805 20.4995 13.6491 20.4995H11.3616Z"/>
</mask>
<path d="M16.1491 28.5742C15.418 28.5742 14.7238 28.255 14.2489 27.6992L9.47377 22.1245C9.0586 21.639 8.84487 21.0123 8.87723 20.3739C8.90904 19.7355 9.1847 19.1339 9.64676 18.692C10.1088 18.2506 10.7221 18.0029 11.3616 17.9995H12.399V12.9995C12.3973 12.6675 12.5274 12.3477 12.7617 12.1122L17.7617 7.1122C18.1211 6.75729 18.6585 6.6535 19.1239 6.84938C19.591 7.04135 19.8962 7.49502 19.899 7.99949V17.9995H20.9364C21.5759 18.0029 22.1892 18.2506 22.6513 18.692C23.1133 19.134 23.389 19.7356 23.4208 20.3739C23.4532 21.0123 23.2395 21.639 22.8243 22.1245L18.0491 27.7121C17.5714 28.2628 16.8778 28.5776 16.149 28.5742L16.1491 28.5742ZM11.3616 20.4995L16.1491 26.0742L20.9365 20.4995H18.6491C17.9588 20.4995 17.3991 19.9397 17.3991 19.2495V11.0117L14.8991 13.5117V19.2495C14.8991 19.5809 14.7674 19.899 14.533 20.1334C14.2986 20.3678 13.9805 20.4995 13.6491 20.4995H11.3616Z" fill="#e11d48" stroke="#EAEAEA" stroke-width="0.5" mask="url(#path-8-inside-8_3218_852)"/>
</svg>
